X: 12762
T: Father O'Grady's Visit To Bocca
R: reel
M: 4/4
K: Dmajor
|:"D"Adde fded|"D"ABAG EFDe|"D"fded "A"cAAG|"G"EFGE "D"D2de|
"D"fded ~A3G|"A"EFGE ABde|"D"fded "A"cAAG|"G"EFGE "D"D2FG:|
|:"D"Adde fage|"D"dfed "A"cA~A2|"G"~G3A "A"GE~E2|"A"edcA "G"GE~E2|
"D"Adde fage|"D"dfed "A"cAAe|"D"f2df "G"gece|1 "A"fage "D"d2FG:|2 "A"fage "D"d4||

